images/logo.svg

<?xml version="1.0" encoding="UTF-8"?>
<svg id="Layer_1" xmlns="http://www.w3.org/2000/svg" version="1.1" viewBox="0 0 30 30">
  <!-- Generator: Adobe Illustrator 30.5.1, SVG Export Plug-In . SVG Version: 2.1.4 Build 3)  -->
  <defs>
    <style>
      .st0 {
        fill: none;
      }

      .st1 {
        fill: #425fbc;
      }

      .st2 {
        fill: #059976;
      }

      .st3 {
        fill: #f9b200;
      }

      .st4 {
        fill: #8892bd;
      }
    </style>
  </defs>
  <rect class="st0" x="13" y="13.1" width="3.9" height="3.9" transform="translate(-6.2 15) rotate(-45)"/>
  <path class="st0" d="M3.9,17.8l2.8-2.8h0L1.1,9.4c-.7,1.7-1.1,3.6-1.1,5.6s.4,3.9,1.1,5.6h0l2.8-2.8Z"/>
  <path class="st0" d="M12.2,15l-2.8-2.8,2.8-2.8h0l-2.7-2.7-2.8-2.8-.8-.8c-1,.8-2,1.7-2.8,2.8l6.4,6.3,2.7,2.8Z"/>
  <path class="st0" d="M12.2,3.9l2.8,2.8,5.6-5.6c-1.7-.7-3.6-1.1-5.6-1.1s-3.9.4-5.6,1.1h0l2.8,2.8Z"/>
  <path class="st0" d="M17.8,20.5l2.8,2.8,2.8,2.8.8.8c1-.8,2-1.7,2.8-2.8l-6.3-6.3-2.9,2.7Z"/>
  <path class="st0" d="M15,12.2h0l-2.8,2.8,2.8,2.8h0l-2.8,2.8-2.8-2.8-2.8,2.8-2.8,2.8-.8.8c.8,1,1.7,2,2.8,2.8l12-12-2.8-2.8Z"/>
  <path class="st0" d="M17.8,26.1l-2.8-2.8-5.6,5.6c1.7.7,3.6,1.1,5.6,1.1s3.9-.4,5.6-1.1h0l-2.8-2.8Z"/>
  <path class="st0" d="M26.1,12.2l-2.8,2.8,5.6,5.6c.7-1.7,1.1-3.6,1.1-5.6s-.4-3.9-1.1-5.6h0l-2.8,2.8Z"/>
  <path class="st0" d="M23.3,3.9l-5.5,5.6h0l2.8,2.8,2.8-2.8,2.8-2.8.8-.8c-.8-1-1.7-2-2.8-2.8l-.9.8h0Z"/>
  <path class="st2" d="M15,6.7l-2.8,2.8h0l-2.8,2.8,2.8,2.8,2.8-2.8h0l2.8-2.8,5.5-5.6h0l.8-.8c-1.1-.8-2.3-1.5-3.5-2l-5.6,5.6h0Z"/>
  <polygon class="st4" points="15 6.7 15 6.7 15 6.7 12.2 9.4 12.2 9.4 15 6.7"/>
  <path class="st1" d="M23.3,15l-2.8-2.8-2.8-2.8h0l-2.7,2.8,2.8,2.8,2.8,2.8,6.3,6.3c.8-1.1,1.5-2.3,2-3.5l-5.6-5.6Z"/>
  <polygon class="st4" points="15 12.2 17.7 9.5 17.7 9.5 15 12.2"/>
  <path class="st2" d="M15,23.3l2.8-2.8h0l2.8-2.8-2.8-2.7-11.9,11.9c1.1.8,2.3,1.5,3.5,2l5.6-5.6h0Z"/>
  <path class="st0" d="M12.2,15l2.8,2.8h0l-2.8,2.8-2.8-2.8-2.7-2.8h0l-2.5-2.5c-.2.8-.3,1.7-.3,2.5,0,3,1.2,5.7,3.2,7.8s4.9,3.2,7.8,3.2,5.7-1.2,7.8-3.2,3.2-4.9,3.2-7.8-1.2-5.7-3.2-7.8c-2-2.1-4.7-3.3-7.7-3.3s-5.7,1.2-7.8,3.3c-.5.5-.9,1-1.3,1.5l3.6,3.5,2.7,2.8Z"/>
  <path class="st3" d="M15,0C9.5,0,4.7,2.9,2.1,7.3c.3-.5.6-1,1-1.5l2.8,2.8c.4-.5.8-1,1.3-1.5,2.1-2,4.8-3.2,7.8-3.2s5.7,1.2,7.8,3.2c2.1,2.1,3.2,4.9,3.2,7.8s-1.2,5.7-3.2,7.8-4.8,3.4-7.8,3.4-5.7-1.2-7.8-3.2-3.3-4.9-3.3-7.9,0-1.7.3-2.5l-3.1-3.1c.1-.2.1-.3.2-.5-.8,1.9-1.3,3.9-1.3,6.1,0,8.3,6.7,15,15,15s15-6.7,15-15S23.3,0,15,0Z"/>
  <path class="st1" d="M6.7,15h0l2.8,2.8,2.8,2.8,2.8-2.8h0l-2.9-2.8-2.8-2.8-3.5-3.5c-.8,1.2-1.4,2.5-1.7,3.8l2.5,2.5Z"/>
  <path class="st3" d="M4.2,12.5c.3-1.4.9-2.7,1.7-3.8l-2.8-2.8c-.4.5-.7,1-1,1.5h0c0,.2-.3.4-.4.6h0c-.1.2-.2.5-.3.7h0c0,.1-.1.1-.1.2h0c0,.2-.2.3-.2.5l3.1,3.1Z"/>
  <polygon class="st4" points="6.7 15 6.7 15 9.5 17.8 9.5 17.8 9.5 17.8 6.7 15"/>
  <path class="st2" d="M6.7,20.6l2.8-2.8h0l-2.8-2.8-2.8,2.8-2.8,2.8h0c.5,1.3,1.2,2.5,2,3.5l.8-.8,2.8-2.7Z"/>
  <path class="st2" d="M23.3,9.4l-2.8,2.8,2.8,2.8,2.8-2.8,2.8-2.8h0c-.5-1.3-1.2-2.5-2-3.5l-.8.8-2.8,2.7Z"/>
  <path class="st1" d="M9.5,6.7l2.8,2.8,2.7-2.8h0l-2.8-2.8-2.7-2.8h0c-1.4.5-2.5,1.2-3.6,2l.8.8,2.8,2.8Z"/>
  <path class="st1" d="M20.6,23.3l-2.8-2.8-2.8,2.8,2.8,2.8,2.8,2.8h0c1.3-.5,2.5-1.2,3.5-2l-.8-.8-2.7-2.8Z"/>
  <polygon class="st2" points="17.8 20.6 15 23.3 15 23.3 17.8 20.5 17.8 20.5 17.8 20.6"/>
</svg>

<?xml version="1.0" encoding="utf-8"?>
<!-- Generator: Adobe Illustrator 25.1.0, SVG Export Plug-In . SVG Version: 6.00 Build 0)  -->
<svg version="1.1" id="Layer_1" xmlns="http://www.w3.org/2000/svg" xmlns:xlink="http://www.w3.org/1999/xlink" x="0px" y="0px"
	 viewBox="0 0 150.8 30" style="enable-background:new 0 0 150.8 30;" xml:space="preserve">
<style type="text/css">
	.st0{fill:none;}
	.st1{fill:#059976;}
	.st2{fill:#8892BD;}
	.st3{fill:#425FBC;}
	.st4{fill:#F9B200;}
</style>
<g>
	<path d="M51.9,26.3c-1.6,0-3.1-0.3-4.5-0.8c-1.4-0.5-2.6-1.3-3.6-2.3c-1-1-1.8-2.1-2.4-3.5c-0.6-1.3-0.9-2.8-0.9-4.4
		c0-1.6,0.3-3,0.9-4.4c0.6-1.3,1.4-2.5,2.4-3.4s2.2-1.7,3.6-2.3c1.4-0.5,2.9-0.8,4.5-0.8c1.8,0,3.5,0.3,5,0.9
		c1.5,0.6,2.7,1.6,3.7,2.8l-3.2,2.9c-0.7-0.8-1.5-1.4-2.4-1.9c-0.9-0.4-1.9-0.6-2.9-0.6c-1,0-1.9,0.2-2.7,0.5
		c-0.8,0.3-1.5,0.8-2.1,1.4s-1.1,1.3-1.4,2.1c-0.3,0.8-0.5,1.7-0.5,2.7c0,1,0.2,1.9,0.5,2.7c0.3,0.8,0.8,1.5,1.4,2.1
		c0.6,0.6,1.3,1.1,2.1,1.4c0.8,0.3,1.7,0.5,2.7,0.5c1,0,2-0.2,2.9-0.6c0.9-0.4,1.7-1.1,2.4-1.9l3.2,2.9c-1,1.2-2.2,2.2-3.7,2.8
		C55.4,26,53.7,26.3,51.9,26.3z"/>
	<path d="M63.5,26V3.7h4.7V26H63.5z"/>
	<path d="M77.5,26.2c-1.2,0-2.3-0.2-3.2-0.6c-0.9-0.4-1.6-1-2.1-1.8c-0.5-0.7-0.7-1.6-0.7-2.5c0-0.9,0.2-1.8,0.7-2.5
		c0.5-0.7,1.2-1.3,2.2-1.7c1-0.4,2.4-0.6,4-0.6h4.3v2.7h-3.8c-1.1,0-1.9,0.2-2.3,0.5c-0.4,0.4-0.6,0.8-0.6,1.3
		c0,0.6,0.2,1.1,0.7,1.4c0.5,0.4,1.1,0.5,1.9,0.5c0.8,0,1.5-0.2,2.1-0.5s1.1-0.9,1.3-1.7l0.7,2.2c-0.3,1-1,1.8-1.9,2.3
		C80.1,25.9,78.9,26.2,77.5,26.2z M82.4,26v-3.2l-0.3-0.7v-5.6c0-1-0.3-1.8-0.9-2.3s-1.5-0.8-2.8-0.8c-0.9,0-1.7,0.1-2.5,0.4
		s-1.5,0.6-2.1,1.1l-1.6-3.3c0.9-0.6,1.9-1.1,3.2-1.5c1.2-0.3,2.5-0.5,3.8-0.5c2.5,0,4.4,0.6,5.7,1.7c1.4,1.2,2,3,2,5.4V26H82.4z"/>
	<path d="M89.1,13.8v-3.6h11.2v3.6H89.1z M97.6,26.2c-1.9,0-3.4-0.5-4.4-1.5c-1.1-1-1.6-2.4-1.6-4.3V6.2h4.7v14.1
		c0,0.7,0.2,1.2,0.5,1.6s0.8,0.6,1.4,0.6c0.8,0,1.4-0.2,1.9-0.6l1.2,3.3c-0.5,0.3-1,0.6-1.7,0.8C99,26.1,98.3,26.2,97.6,26.2z"/>
	<path d="M113.9,9.6c1.3,0,2.4,0.3,3.4,0.8c1,0.5,1.8,1.3,2.4,2.3c0.6,1,0.9,2.4,0.9,4V26h-4.7v-8.5c0-1.3-0.3-2.3-0.9-2.9
		c-0.6-0.6-1.4-0.9-2.4-0.9c-0.7,0-1.4,0.2-2,0.5c-0.6,0.3-1,0.8-1.4,1.4c-0.3,0.6-0.5,1.4-0.5,2.5v8h-4.7V3.7h4.7v10.6l-1-1.4
		c0.6-1.1,1.4-1.9,2.5-2.5S112.5,9.6,113.9,9.6z"/>
	<path d="M124.8,26V9.8h4.5v4.6l-0.6-1.4c0.5-1.1,1.2-2,2.3-2.6c1.1-0.6,2.4-0.9,3.9-0.9v4.4c-0.2,0-0.4-0.1-0.5-0.1
		c-0.2,0-0.3,0-0.5,0c-1.3,0-2.4,0.4-3.2,1.1c-0.8,0.7-1.2,1.9-1.2,3.4V26H124.8z"/>
	<path d="M141.5,26.2c-1.2,0-2.3-0.2-3.2-0.6c-0.9-0.4-1.6-1-2.1-1.8s-0.7-1.6-0.7-2.5c0-0.9,0.2-1.8,0.7-2.5
		c0.5-0.7,1.2-1.3,2.2-1.7c1-0.4,2.4-0.6,4-0.6h4.3v2.7h-3.8c-1.1,0-1.9,0.2-2.3,0.5c-0.4,0.4-0.6,0.8-0.6,1.3
		c0,0.6,0.2,1.1,0.7,1.4c0.5,0.4,1.1,0.5,1.9,0.5c0.8,0,1.5-0.2,2.1-0.5s1.1-0.9,1.3-1.7l0.7,2.2c-0.3,1-1,1.8-1.9,2.3
		C144.1,25.9,143,26.2,141.5,26.2z M146.5,26v-3.2l-0.3-0.7v-5.6c0-1-0.3-1.8-0.9-2.3s-1.5-0.8-2.8-0.8c-0.9,0-1.7,0.1-2.5,0.4
		s-1.5,0.6-2.1,1.1l-1.7-3.3c0.9-0.6,1.9-1.1,3.2-1.5c1.2-0.3,2.5-0.5,3.8-0.5c2.5,0,4.4,0.6,5.7,1.7c1.4,1.2,2,3,2,5.4V26H146.5z"
		/>
</g>
<g>
	
		<rect id="XMLID_13_" x="13" y="13" transform="matrix(0.7071 -0.7071 0.7071 0.7071 -6.2046 15.0063)" class="st0" width="3.9" height="3.9"/>
	<path class="st0" d="M3.9,17.8L6.7,15h0L1.1,9.4C0.4,11.1,0,13,0,15c0,2,0.4,3.9,1.1,5.6l0,0L3.9,17.8z"/>
	<path class="st0" d="M12.2,15l-2.8-2.8l2.8-2.8l0,0L9.5,6.7L6.7,3.9L5.9,3.1c-1,0.8-2,1.7-2.8,2.8l6.4,6.3L12.2,15z"/>
	<path class="st0" d="M12.2,3.9L15,6.7l5.6-5.6C18.9,0.4,17,0,15,0c-2,0-3.9,0.4-5.6,1.1l0,0L12.2,3.9z"/>
	<path class="st0" d="M17.8,20.5l2.8,2.8l2.8,2.8l0.8,0.8c1-0.8,2-1.7,2.8-2.8l-6.3-6.3L17.8,20.5z"/>
	<path class="st0" d="M15,12.2L15,12.2L12.2,15l2.8,2.8l0,0l-2.8,2.8l-2.8-2.8l-2.8,2.8l-2.8,2.8l-0.8,0.8c0.8,1,1.7,2,2.8,2.8
		L17.8,15L15,12.2z"/>
	<path class="st0" d="M17.8,26.1L15,23.3l-5.6,5.6C11.1,29.6,13,30,15,30c2,0,3.9-0.4,5.6-1.1l0,0L17.8,26.1z"/>
	<path class="st0" d="M26.1,12.2L23.3,15l5.6,5.6C29.6,18.9,30,17,30,15c0-2-0.4-3.9-1.1-5.6l0,0L26.1,12.2z"/>
	<path class="st0" d="M23.3,3.9l-5.5,5.6l0,0l2.8,2.8l2.8-2.8l2.8-2.8l0.8-0.8c-0.8-1-1.7-2-2.8-2.8L23.3,3.9L23.3,3.9z"/>
	<path class="st1" d="M15,6.7l-2.8,2.8l0,0l0,0l-2.8,2.8l2.8,2.8l2.8-2.8l0,0l0,0l2.8-2.8l5.5-5.6l0,0l0.8-0.8
		c-1.1-0.8-2.3-1.5-3.5-2L15,6.7L15,6.7z"/>
	<polygon class="st2" points="15,6.7 15,6.7 15,6.7 12.2,9.4 12.2,9.4 	"/>
	<path class="st3" d="M23.3,15l-2.8-2.8l-2.8-2.8l0,0l0,0L15,12.2l2.8,2.8l2.8,2.8l6.3,6.3c0.8-1.1,1.5-2.3,2-3.5L23.3,15z"/>
	<rect x="14.4" y="10.8" transform="matrix(0.7071 -0.7071 0.7071 0.7071 -2.8577 14.7666)" class="st2" width="3.9" height="0"/>
	<path class="st1" d="M15,23.3l2.8-2.8l0,0l0,0l2.8-2.8L17.8,15L5.9,26.9c1.1,0.8,2.3,1.5,3.5,2L15,23.3L15,23.3z"/>
	<path class="st0" d="M12.2,15l2.8,2.8l0,0l-2.8,2.8l-2.8-2.8L6.7,15h0l-2.5-2.5C4,13.3,3.9,14.2,3.9,15c0,3,1.2,5.7,3.2,7.8
		s4.9,3.2,7.8,3.2s5.7-1.2,7.8-3.2s3.2-4.9,3.2-7.8c0-3-1.2-5.7-3.2-7.8C20.7,5.1,18,3.9,15,3.9S9.3,5.1,7.2,7.2
		c-0.5,0.5-0.9,1-1.3,1.5l3.6,3.5L12.2,15z"/>
	<path class="st4" d="M15,0C9.5,0,4.7,2.9,2.1,7.3c0.3-0.5,0.6-1,1-1.5l2.8,2.8c0.4-0.5,0.8-1,1.3-1.5C9.3,5.1,12,3.9,15,3.9
		s5.7,1.2,7.8,3.2c2.1,2.1,3.2,4.9,3.2,7.8c0,3-1.2,5.7-3.2,7.8S18,26.1,15,26.1s-5.7-1.2-7.8-3.2S3.9,18,3.9,15
		c0-0.8,0.1-1.7,0.3-2.5L1.1,9.4c0.1-0.2,0.1-0.3,0.2-0.5C0.5,10.8,0,12.8,0,15c0,8.3,6.7,15,15,15s15-6.7,15-15S23.3,0,15,0z"/>
	<path class="st3" d="M6.7,15L6.7,15l2.8,2.8l2.8,2.8l2.8-2.8l0,0L12.2,15l-2.8-2.8L5.9,8.7c-0.8,1.2-1.4,2.5-1.7,3.8L6.7,15z"/>
	<path class="st4" d="M4.2,12.5c0.3-1.4,0.9-2.7,1.7-3.8L3.1,5.9c-0.4,0.5-0.7,1-1,1.5c0,0,0,0,0,0C2,7.6,1.8,7.8,1.7,8c0,0,0,0,0,0
		C1.6,8.2,1.5,8.5,1.4,8.7c0,0,0,0,0,0c0,0.1-0.1,0.1-0.1,0.2c0,0,0,0,0,0C1.2,9.1,1.1,9.2,1.1,9.4L4.2,12.5z"/>
	<polygon class="st2" points="6.7,15 6.7,15 9.5,17.8 9.5,17.8 9.5,17.8 	"/>
	<path class="st1" d="M6.7,20.6l2.8-2.8h0L6.7,15l-2.8,2.8l-2.8,2.8l0,0c0.5,1.3,1.2,2.5,2,3.5l0.8-0.8L6.7,20.6z"/>
	<path class="st1" d="M23.3,9.4l-2.8,2.8l2.8,2.8l2.8-2.8l2.8-2.8l0,0c-0.5-1.3-1.2-2.5-2-3.5l-0.8,0.8L23.3,9.4z"/>
	<path class="st3" d="M9.5,6.7l2.8,2.8L15,6.7l0,0l-2.8-2.8L9.5,1.1l0,0C8.1,1.6,7,2.3,5.9,3.1l0.8,0.8L9.5,6.7z"/>
	<path class="st3" d="M20.6,23.3l-2.8-2.8L15,23.3l2.8,2.8l2.8,2.8l0,0c1.3-0.5,2.5-1.2,3.5-2l-0.8-0.8L20.6,23.3z"/>
	<polygon class="st1" points="17.8,20.6 15,23.3 15,23.3 17.8,20.5 17.8,20.5 	"/>
</g>
</svg>
